X: 369
U:~=!turn!
M:C
L:1/8
K:E aeolian
f | g>be>b g<ee>g | f>da>d f<dd>f | g>be>b g<ee>g | f>da>f e/e/e ef |
g>be>b g<ee>g | f>da>d f<dd>f | g<ba>f g>ef>d | e>B{/^c}d>F {/F}E/E/E E |]


